X:1
T:Highlander's Jig
T:Forest and Glen
T:Cold Winds from Ben Wyviss
Z:Wil Macaulay Dec 1999
R:Jig
A:Cape Breton
L:1/8
M:6/8
K:AMix
d|cBA ecA | fdf ecA | cBA efg | BGB BdB |
|cBA ecA | fdf ecA |cec dBG |1 BAA A2 :|2 BAA A||
ce | a2f g2e | fdf ecA | a2f g2d | BGB d2b|
afa geg |fdf ecA | cec dBG | BAA A :|

